assets/Face in clouds/Flat/face_in_clouds_flat.svg

<svg width="32" height="32" viewBox="0 0 32 32" fill="none" xmlns="http://www.w3.org/2000/svg">
<path d="M15.9989 29.9978C25.3333 29.9978 29.9978 23.7303 29.9978 15.9989C29.9978 8.26751 25.3333 2 15.9989 2C6.66443 2 2 8.26751 2 15.9989C2 23.7303 6.66443 29.9978 15.9989 29.9978Z" fill="#FFB02E"/>
<path d="M15 14.5C15 16.9853 12.9853 19 10.5 19C8.01472 19 6 16.9853 6 14.5C6 12.0147 8.01472 10 10.5 10C12.9853 10 15 12.0147 15 14.5Z" fill="white"/>
<path d="M26 14.5C26 16.9853 23.9853 19 21.5 19C19.0147 19 17 16.9853 17 14.5C17 12.0147 19.0147 10 21.5 10C23.9853 10 26 12.0147 26 14.5Z" fill="white"/>
<path d="M11 18C12.6569 18 14 16.6569 14 15C14 13.3431 12.6569 12 11 12C9.34315 12 8 13.3431 8 15C8 16.6569 9.34315 18 11 18Z" fill="#402A32"/>
<path d="M21 18C22.6569 18 24 16.6569 24 15C24 13.3431 22.6569 12 21 12C19.3431 12 18 13.3431 18 15C18 16.6569 19.3431 18 21 18Z" fill="#402A32"/>
<path d="M32 0H0V32H32V0ZM22.1479 5.43801L23.3856 6.1602L23.2186 7.94773C24.0245 9.12568 25.181 10.0448 26.5378 10.5547L27.5085 10.1171L28.0187 10.9318C28.0063 11.1196 28 11.309 28 11.5C28 12.8787 28.3283 14.1808 28.9109 15.3323L28.6822 16.4824L27.6855 16.8389C27.2487 17.6275 27 18.5347 27 19.5C27 19.7627 27.0184 20.0211 27.054 20.274C24.9317 20.887 23.224 22.4772 22.4498 24.5258C21.6035 24.2126 20.6938 24.0303 19.7452 24.0035C19.1284 22.2539 17.4606 21 15.5 21C14.0774 21 12.809 21.6601 11.9844 22.6907C10.5189 21.0401 8.38092 20 6 20L5.97758 20C5.8304 18.3667 4.96918 16.9393 3.70847 16.0323L2.73072 16.1299L2.48955 15.3709C4.02404 14.0868 5 12.1574 5 10C5 9.94976 4.99947 9.89964 4.99841 9.84965L5.91232 9.37065C5.91232 9.37065 6.77568 9.99626 6.91212 9.98887C9.20325 9.86479 11.2209 8.71242 12.5116 6.98518L12.9102 4.72353L13.987 2.94503C15.136 4.77983 17.1755 6 19.5 6C20.443 6 21.3391 5.79919 22.1479 5.43801Z" fill="#F3EEF8"/>
<path d="M0 18.7101V16.7102C0.924289 16.4351 1.76857 15.9742 2.48955 15.3709C2.92916 15.5416 3.34138 15.7671 3.7178 16.0391C2.82312 17.3033 1.51971 18.2578 0 18.7101Z" fill="#BCA4EB"/>
<path d="M0 28.9776V25.9776C0.164681 25.9925 0.331455 26 0.5 26C2.35856 26 4.00182 25.0782 4.99744 23.6667C4.91427 26.4598 2.74871 28.7298 0 28.9776Z" fill="#BCA4EB"/>
<path d="M11.0145 32H8.37367C8.74259 30.7995 9.37025 29.7122 10.1916 28.8033C10.067 28.3908 10 27.9534 10 27.5002C10 26.3726 10.4147 25.3419 11.1 24.5523C11.0345 24.8578 11 25.1749 11 25.5C11 26.6027 11.3966 27.6128 12.055 28.3953C11.4585 29.475 11.09 30.6982 11.0145 32Z" fill="#BCA4EB"/>
<path d="M30.6263 32H27.9855C27.8637 29.8993 26.9789 28.0033 25.6043 26.585C27.9995 27.5251 29.8645 29.5211 30.6263 32Z" fill="#BCA4EB"/>
<path d="M32 24.9776V26.793C30.1372 26.2661 28.6761 24.7824 28.1814 22.9062C29.0917 24.0588 30.4536 24.8383 32 24.9776Z" fill="#BCA4EB"/>
<path d="M32 18.7125V21.2483C30.067 20.3738 28.5195 18.7971 27.6829 16.8437C28.0003 16.2693 28.4174 15.7578 28.9109 15.3324C29.6137 16.7214 30.6866 17.8913 32 18.7125Z" fill="#BCA4EB"/>
<path d="M13.1358 0.828125C12.4193 1.87288 12 3.13751 12 4.50007C12 5.38676 12.1775 6.23197 12.499 7.00211C13.3581 5.85916 13.8982 4.46273 13.987 2.94508C13.5865 2.30555 13.2942 1.59135 13.1358 0.828125Z" fill="#BCA4EB"/>
<path d="M24.9807 2.99604C24.2989 4.06275 23.3142 4.91717 22.1479 5.43805C22.34 6.3583 22.7129 7.21221 23.2276 7.96096C24.3264 6.79689 25 5.22713 25 3.50005C25 3.33045 24.9935 3.16237 24.9807 2.99604Z" fill="#BCA4EB"/>
<path d="M29.5731 6.57263C28.1952 7.55435 27.1226 8.9369 26.5256 10.5501C27.0008 10.7297 27.5007 10.8591 28.0187 10.9318C28.1255 9.313 28.6856 7.81805 29.5731 6.57263Z" fill="#BCA4EB"/>
<path d="M4.99842 9.84965C5.48359 9.94825 5.98579 10 6.50007 10C6.64349 10 6.78597 9.99599 6.92741 9.98805C6.53822 7.30045 4.62206 5.10721 2.08706 4.31645C3.81348 5.5601 4.95039 7.57096 4.99842 9.84965Z" fill="#BCA4EB"/>
</svg>

<svg xmlns="http://www.w3.org/2000/svg" width="32" height="32" fill="none"><path fill="#FFB02E" d="M15.999 29.998c9.334 0 13.999-6.268 13.999-14 0-7.73-4.665-13.998-14-13.998C6.665 2 2 8.268 2 15.999c0 7.731 4.664 13.999 13.999 13.999Z"/><path fill="#fff" d="M15 14.5a4.5 4.5 0 1 1-9 0 4.5 4.5 0 0 1 9 0ZM26 14.5a4.5 4.5 0 1 1-9 0 4.5 4.5 0 0 1 9 0Z"/><path fill="#402A32" d="M11 18a3 3 0 1 0 0-6 3 3 0 0 0 0 6ZM21 18a3 3 0 1 0 0-6 3 3 0 0 0 0 6Z"/><path fill="#F3EEF8" d="M32 0H0v32h32V0Zm-9.852 5.438 1.238.722-.167 1.788a7.022 7.022 0 0 0 3.319 2.607l.97-.438.51.815a8.465 8.465 0 0 0 .892 4.4l-.228 1.15-.996.357a5.475 5.475 0 0 0-.632 3.435 7.017 7.017 0 0 0-4.604 4.252 8.469 8.469 0 0 0-2.705-.523 4.502 4.502 0 0 0-7.76-1.312A7.98 7.98 0 0 0 6 20h-.022a5.495 5.495 0 0 0-2.27-3.968l-.977.098-.241-.76a6.985 6.985 0 0 0 2.508-5.52l.914-.48s.864.626 1 .619a7.49 7.49 0 0 0 5.6-3.004l.398-2.261 1.077-1.779A6.496 6.496 0 0 0 19.5 6c.943 0 1.84-.2 2.648-.562Z"/><path fill="#BCA4EB" d="M0 18.71v-2a6.985 6.985 0 0 0 2.49-1.34c.44.172.851.397 1.228.67A7.013 7.013 0 0 1 0 18.71ZM0 28.978v-3a5.493 5.493 0 0 0 4.997-2.31A5.5 5.5 0 0 1 0 28.977ZM11.014 32h-2.64a8.488 8.488 0 0 1 1.818-3.197A4.5 4.5 0 0 1 10 27.5c0-1.127.415-2.158 1.1-2.948a4.517 4.517 0 0 0 .955 3.843A8.45 8.45 0 0 0 11.015 32ZM30.626 32h-2.64a8.47 8.47 0 0 0-2.382-5.415A8.523 8.523 0 0 1 30.626 32ZM32 24.978v1.815a5.51 5.51 0 0 1-3.819-3.887A5.492 5.492 0 0 0 32 24.978ZM32 18.712v2.536a8.531 8.531 0 0 1-4.317-4.404 5.524 5.524 0 0 1 1.228-1.512A8.539 8.539 0 0 0 32 18.712ZM13.136.828A6.47 6.47 0 0 0 12 4.5c0 .887.178 1.732.499 2.502a7.462 7.462 0 0 0 1.488-4.057 6.46 6.46 0 0 1-.851-2.117ZM24.98 2.996a6.526 6.526 0 0 1-2.832 2.442c.192.92.565 1.774 1.08 2.523a6.478 6.478 0 0 0 1.753-4.965ZM29.573 6.573a8.525 8.525 0 0 0-3.047 3.977c.475.18.975.31 1.493.382a8.454 8.454 0 0 1 1.554-4.36ZM4.998 9.85a7.534 7.534 0 0 0 1.93.138 7.008 7.008 0 0 0-4.84-5.672 6.991 6.991 0 0 1 2.91 5.534Z"/></svg>
